;FLAVOR:UltiGCode
;TIME:7520
;MATERIAL:19524
;MATERIAL2:0
;NOZZLE_DIAMETER:0.4
;MINX:69.711
;MINY:87.895
;MINZ:0.27
;MAXX:155.948
;MAXY:135.105
;MAXZ:18.27
;Generated with Cura_SteamEngine 5.2.2
M82 ;absolute extrusion mode
G0 F3000 Y50 ;avoid prime blob
G92 E0
G92 E0
G10
;LAYER_COUNT:121
;LAYER:0
M107
G0 F9000 X72.733 Y91.33 Z0.27
;TYPE:SKIRT
G11
G1 F1800 X73.381 Y90.878 E0.08533
G1 X74.071 Y90.494 E0.17061
G1 X74.797 Y90.182 E0.25595
G1 X75.55 Y89.946 E0.34118
G1 X76.323 Y89.786 E0.42643
G1 X76.643 Y89.753 E0.46117
G1 X76.904 Y89.529 E0.49832
G1 X77.552 Y89.078 E0.58359
G1 X78.243 Y88.694 E0.66896
G1 X78.968 Y88.382 E0.7542
G1 X79.721 Y88.145 E0.83946
G1 X80.495 Y87.986 E0.9248
G1 X81.377 Y87.895 E1.02056
G1 X88.977 Y87.895 E1.84136
G1 X89.766 Y87.935 E1.92668
G1 X90.546 Y88.054 E2.0119
G1 X91.311 Y88.252 E2.09724
G1 X92.051 Y88.526 E2.18246
G1 X92.76 Y88.874 E2.26776
G1 X93.431 Y89.292 E2.35314
G1 X93.952 Y89.695 E2.42428
G1 X102.356 Y89.695 E3.33191
G1 X102.845 Y89.695 E3.38472
G1 X126.386 Y89.695 E5.92715
G1 X126.576 Y89.532 E5.95419
G1 X127.224 Y89.08 E6.03951
G1 X127.914 Y88.696 E6.1248
G1 X128.639 Y88.384 E6.21004
G1 X129.392 Y88.147 E6.29529
G1 X130.165 Y87.987 E6.38055
G1 X131.058 Y87.895 E6.4775
G1 X138.652 Y87.895 E7.29765
G1 X139.441 Y87.935 E7.38298
G1 X140.221 Y88.054 E7.46819
G1 X140.986 Y88.252 E7.55353
G1 X141.726 Y88.526 E7.63876
G1 X142.435 Y88.874 E7.72405
G1 X143.106 Y89.292 E7.80943
G1 X143.73 Y89.775 E7.89466
G1 X144.121 Y90.146 E7.95287
G1 X144.442 Y90.229 E7.98868
G1 X145.213 Y90.473 E8.07601
G1 X145.797 Y90.691 E8.14334
G1 X146.522 Y91.004 E8.22862
G1 X147.077 Y91.278 E8.29547
G1 X147.768 Y91.664 E8.38095
G1 X148.299 Y91.997 E8.44864
G1 X148.954 Y92.456 E8.53502
G1 X149.446 Y92.84 E8.60243
G1 X150.019 Y93.333 E8.68407
G1 X150.477 Y93.768 E8.75228
G1 X151.034 Y94.356 E8.83976
G1 X151.434 Y94.824 E8.90625
G1 X151.924 Y95.461 E8.99304
G1 X152.274 Y95.968 E9.05958
G1 X152.676 Y96.616 E9.14194
G1 X152.986 Y97.175 E9.21097
G1 X153.348 Y97.917 E9.30013
G1 X153.583 Y98.472 E9.36523
G1 X153.848 Y99.196 E9.44849
G1 X154.718 Y101.992 E9.76474
G1 X154.912 Y102.746 E9.84882
G1 X155.495 Y105.597 E10.1631
G1 X155.613 Y106.375 E10.24809
G1 X155.908 Y109.29 E10.56452
G1 X155.948 Y110.075 E10.64941
G1 X155.948 Y112.983 E10.96347
G1 X155.908 Y113.768 E11.04836
G1 X155.613 Y116.683 E11.36479
G1 X155.495 Y117.46 E11.44967
G1 X154.912 Y120.313 E11.76416
G1 X154.718 Y121.068 E11.84835
G1 X153.849 Y123.862 E12.16436
G1 X153.58 Y124.595 E12.24868
G1 X153.34 Y125.16 E12.31498
G1 X152.985 Y125.887 E12.40236
G1 X152.68 Y126.438 E12.47037
G1 X152.26 Y127.114 E12.55633
G1 X151.904 Y127.626 E12.62367
G1 X151.435 Y128.235 E12.70669
G1 X151.029 Y128.711 E12.77426
G1 X150.451 Y129.318 E12.86478
G1 X149.997 Y129.747 E12.93224
G1 X149.432 Y130.232 E13.01266
G1 X148.944 Y130.612 E13.07946
G1 X148.286 Y131.072 E13.16616
G1 X147.75 Y131.407 E13.23443
G1 X147.054 Y131.795 E13.32049
G1 X146.5 Y132.067 E13.38714
G1 X145.775 Y132.378 E13.47234
G1 X145.19 Y132.595 E13.53973
G1 X144.442 Y132.83 E13.62441
G1 X144.054 Y132.931 E13.66771
G1 X143.431 Y133.471 E13.75675
G1 X142.783 Y133.922 E13.84201
G1 X142.092 Y134.306 E13.92739
G1 X141.367 Y134.618 E14.01263
G1 X140.614 Y134.855 E14.09789
G1 X139.84 Y135.014 E14.18323
G1 X138.958 Y135.105 E14.27899
G1 X131.358 Y135.105 E15.09979
G1 X130.569 Y135.065 E15.18511
G1 X129.789 Y134.946 E15.27033
G1 X129.024 Y134.748 E15.35567
G1 X128.284 Y134.474 E15.44089
G1 X127.575 Y134.126 E15.52619
G1 X126.904 Y133.708 E15.61157
G1 X126.461 Y133.365 E15.67208
G1 X103.574 Y133.365 E18.14387
G1 X103.096 Y133.365 E18.1955
G1 X93.907 Y133.365 E19.18791
G1 X93.111 Y133.92 E19.29271
G1 X92.421 Y134.304 E19.37799
G1 X91.696 Y134.616 E19.46324
G1 X90.943 Y134.853 E19.54849
G1 X90.17 Y135.013 E19.63375
G1 X89.277 Y135.105 E19.7307
G1 X81.683 Y135.105 E20.55085
G1 X80.894 Y135.065 E20.63617
G1 X80.114 Y134.946 E20.72139
G1 X79.349 Y134.748 E20.80673
G1 X78.609 Y134.474 E20.89195
G1 X77.9 Y134.126 E20.97725
G1 X77.229 Y133.708 E21.06263
G1 X76.735 Y133.326 E21.13007
G1 X75.943 Y133.206 E21.21659
G1 X75.178 Y133.008 E21.30193
G1 X74.438 Y132.734 E21.38715
G1 X73.729 Y132.386 E21.47245
G1 X73.058 Y131.968 E21.55783
G1 X72.434 Y131.485 E21.64305
G1 X71.861 Y130.942 E21.72831
G1 X71.346 Y130.343 E21.81362
G1 X70.895 Y129.695 E21.89889
G1 X70.511 Y129.004 E21.98427
G1 X70.199 Y128.279 E22.06951
G1 X69.962 Y127.526 E22.15477
G1 X69.803 Y126.752 E22.2401
G1 X69.712 Y125.87 E22.33586
G1 X69.711 Y97.495 E25.40036
G1 X69.751 Y96.707 E25.48558
G1 X69.87 Y95.926 E25.5709
G1 X70.068 Y95.162 E25.65614
G1 X70.342 Y94.421 E25.74146
G1 X70.69 Y93.712 E25.82676
G1 X71.107 Y93.042 E25.91199
G1 X71.59 Y92.417 E25.9973
G1 X72.134 Y91.844 E26.08263
G1 X72.733 Y91.33 E26.16787
G0 F9000 X73.122 Y91.537
G1 F1800 X73.764 Y91.114 E26.25091
G1 X74.446 Y90.759 E26.33394
G1 X75.162 Y90.478 E26.41701
G1 X75.903 Y90.272 E26.50008
G1 X76.832 Y90.115 E26.60183
G1 X77.293 Y89.737 E26.66622
G1 X77.935 Y89.314 E26.74925
G1 X78.618 Y88.959 E26.83238
G1 X79.333 Y88.678 E26.91535
G1 X80.075 Y88.472 E26.99852
G1 X80.833 Y88.344 E27.08154
G1 X81.682 Y88.295 E27.17339
G1 X88.977 Y88.295 E27.96125
G1 X89.745 Y88.335 E28.0443
G1 X90.505 Y88.454 E28.12738
G1 X91.248 Y88.652 E28.21043
G1 X91.967 Y88.926 E28.29353
G1 X92.653 Y89.273 E28.37655
G1 X93.3 Y89.689 E28.45963
G1 X93.806 Y90.095 E28.52969
G1 X102.356 Y90.095 E29.45309
G1 X102.845 Y90.095 E29.5059
G1 X126.532 Y90.095 E32.0641
G1 X126.965 Y89.74 E32.12457
G1 X127.607 Y89.316 E32.20766
G1 X128.289 Y88.961 E32.2907
G1 X129.005 Y88.679 E32.37381
G1 X129.746 Y88.473 E32.45687
G1 X130.504 Y88.344 E32.53991
G1 X131.357 Y88.295 E32.63219
G1 X138.652 Y88.295 E33.42005
G1 X139.42 Y88.335 E33.50311
G1 X140.18 Y88.454 E33.58619
G1 X140.923 Y88.652 E33.66923
G1 X141.642 Y88.926 E33.75233
G1 X142.328 Y89.273 E33.83536
G1 X142.975 Y89.689 E33.91843
G1 X143.575 Y90.17 E34.00148
G1 X143.915 Y90.507 E34.05318
G1 X144.341 Y90.617 E34.1007
G1 X145.073 Y90.847 E34.18357
G1 X145.657 Y91.065 E34.25089
G1 X146.345 Y91.363 E34.33187
G1 X146.9 Y91.637 E34.39871
G1 X147.556 Y92.003 E34.47984
G1 X148.087 Y92.336 E34.54753
G1 X148.708 Y92.771 E34.62942
G1 X149.2 Y93.155 E34.69682
G1 X149.743 Y93.623 E34.77424
G1 X150.201 Y94.058 E34.84246
G1 X150.73 Y94.616 E34.9255
G1 X151.13 Y95.084 E34.99199
G1 X151.595 Y95.688 E35.07432
G1 X151.945 Y96.195 E35.14085
G1 X152.326 Y96.81 E35.21899
G1 X152.636 Y97.369 E35.28802
G1 X152.979 Y98.073 E35.3726
G1 X153.214 Y98.628 E35.43769
G1 X153.466 Y99.314 E35.51662
G1 X154.336 Y102.11 E35.83287
G1 X154.52 Y102.826 E35.91271
G1 X155.103 Y105.677 E36.22699
G1 X155.215 Y106.415 E36.3076
G1 X155.51 Y109.33 E36.62403
G1 X155.548 Y110.075 E36.7046
G1 X155.548 Y112.983 E37.01866
G1 X155.51 Y113.728 E37.09922
G1 X155.215 Y116.643 E37.41565
G1 X155.103 Y117.38 E37.49616
G1 X154.52 Y120.233 E37.81065
G1 X154.336 Y120.949 E37.89049
G1 X153.467 Y123.743 E38.2065
G1 X153.212 Y124.438 E38.28646
G1 X152.972 Y125.003 E38.35275
G1 X152.635 Y125.694 E38.43578
G1 X152.33 Y126.245 E38.5038
G1 X151.932 Y126.885 E38.5852
G1 X151.576 Y127.397 E38.65255
G1 X151.13 Y127.975 E38.73139
G1 X150.724 Y128.451 E38.79896
G1 X150.176 Y129.028 E38.8849
G1 X149.722 Y129.457 E38.95236
G1 X149.186 Y129.917 E39.02865
G1 X148.698 Y130.297 E39.09544
G1 X148.074 Y130.733 E39.17766
G1 X147.538 Y131.068 E39.24592
G1 X146.877 Y131.436 E39.32763
G1 X146.323 Y131.708 E39.39428
G1 X145.636 Y132.003 E39.47503
G1 X145.051 Y132.22 E39.54241
G1 X144.342 Y132.443 E39.62268
G1 X143.835 Y132.575 E39.67927
G1 X143.637 Y132.775 E39.70966
G1 X143.042 Y133.263 E39.79277
G1 X142.4 Y133.686 E39.8758
G1 X141.717 Y134.041 E39.95894
G1 X141.002 Y134.322 E40.04191
G1 X140.26 Y134.528 E40.12507
G1 X139.502 Y134.656 E40.2081
G1 X138.653 Y134.705 E40.29994
G1 X131.358 Y134.705 E41.0878
G1 X130.59 Y134.665 E41.17086
G1 X129.83 Y134.546 E41.25394
G1 X129.087 Y134.348 E41.33698
G1 X128.368 Y134.074 E41.42008
G1 X127.682 Y133.727 E41.50311
G1 X127.035 Y133.311 E41.58618
G1 X126.603 Y132.965 E41.64596
G1 X103.574 Y132.965 E44.13309
G1 X103.096 Y132.965 E44.18471
G1 X93.73 Y132.965 E45.19624
G1 X93.37 Y133.26 E45.24651
G1 X92.729 Y133.684 E45.32951
G1 X92.046 Y134.039 E45.41264
G1 X91.331 Y134.321 E45.49565
G1 X90.59 Y134.527 E45.57871
G1 X89.831 Y134.656 E45.66186
G1 X88.978 Y134.705 E45.75414
G1 X81.683 Y134.705 E46.542
G1 X80.915 Y134.665 E46.62505
G1 X80.155 Y134.546 E46.70813
G1 X79.412 Y134.348 E46.79118
G1 X78.693 Y134.074 E46.87428
G1 X78.007 Y133.727 E46.9573
G1 X77.36 Y133.311 E47.04038
G1 X76.912 Y132.951 E47.10245
G1 X75.984 Y132.806 E47.20389
G1 X75.241 Y132.608 E47.28693
G1 X74.522 Y132.334 E47.37003
G1 X73.836 Y131.987 E47.45306
G1 X73.189 Y131.571 E47.53613
G1 X72.589 Y131.09 E47.61918
G1 X72.042 Y130.549 E47.70227
G1 X71.554 Y129.954 E47.78538
G1 X71.131 Y129.312 E47.86842
G1 X70.776 Y128.629 E47.95155
G1 X70.495 Y127.914 E48.03452
G1 X70.289 Y127.172 E48.11768
G1 X70.161 Y126.414 E48.20071
G1 X70.112 Y125.565 E48.29255
G1 X70.111 Y97.495 E51.32411
G1 X70.151 Y96.727 E51.40717
G1 X70.27 Y95.967 E51.49025
G1 X70.468 Y95.224 E51.57329
G1 X70.742 Y94.505 E51.65639
G1 X71.089 Y93.819 E51.73942
G1 X71.505 Y93.172 E51.82249
G1 X71.986 Y92.572 E51.90555
G1 X72.527 Y92.025 E51.98863
G1 X73.122 Y91.537 E52.07174
G0 F9000 X73.509 Y91.752
G1 F1800 X74.145 Y91.358 E52.15254
G1 X74.819 Y91.033 E52.23336
G1 X75.524 Y90.783 E52.31414
G1 X76.252 Y90.609 E52.39498
G1 X76.951 Y90.519 E52.4711
G1 X77.68 Y89.952 E52.57084
G1 X78.316 Y89.557 E52.6517
G1 X78.99 Y89.233 E52.73246
G1 X79.695 Y88.983 E52.81325
G1 X80.423 Y88.809 E52.89409
G1 X81.313 Y88.695 E52.99099
G1 X88.977 Y88.695 E53.8187
G1 X89.724 Y88.735 E53.89949
G1 X90.462 Y88.854 E53.98023
G1 X91.184 Y89.052 E54.06108
G1 X91.88 Y89.325 E54.14183
G1 X92.543 Y89.672 E54.22264
G1 X93.166 Y90.087 E54.30349
G1 X93.655 Y90.495 E54.37227
G1 X102.356 Y90.495 E55.31198
G1 X102.845 Y90.495 E55.36479
G1 X126.658 Y90.495 E57.93659
G1 X127.352 Y89.954 E58.03163
G1 X127.988 Y89.559 E58.11249
G1 X128.662 Y89.235 E58.19325
G1 X129.366 Y88.984 E58.27397
G1 X130.094 Y88.81 E58.35481
G1 X130.983 Y88.695 E58.45162
G1 X138.652 Y88.695 E59.27987
G1 X139.399 Y88.735 E59.36067
G1 X140.137 Y88.854 E59.4414
G1 X140.859 Y89.052 E59.52225
G1 X141.555 Y89.325 E59.603
G1 X142.218 Y89.672 E59.68382
G1 X142.841 Y90.087 E59.76466
G1 X143.415 Y90.566 E59.8454
G1 X143.705 Y90.865 E59.89039
G1 X144.241 Y91.004 E59.95019
G1 X144.933 Y91.222 E60.02855
G1 X145.517 Y91.44 E60.09587
G1 X146.168 Y91.721 E60.17245
G1 X146.723 Y91.995 E60.2393
G1 X147.343 Y92.342 E60.31603
G1 X147.874 Y92.675 E60.38372
G1 X148.462 Y93.087 E60.46126
G1 X148.954 Y93.471 E60.52867
G1 X149.468 Y93.913 E60.60188
G1 X149.926 Y94.348 E60.6701
G1 X150.426 Y94.876 E60.74864
G1 X150.826 Y95.344 E60.81513
G1 X151.266 Y95.915 E60.89298
G1 X151.616 Y96.422 E60.95952
G1 X151.977 Y97.004 E61.03348
G1 X152.287 Y97.563 E61.10252
G1 X152.611 Y98.229 E61.1825
G1 X152.846 Y98.784 E61.2476
G1 X153.084 Y99.433 E61.32225
G1 X153.954 Y102.229 E61.6385
G1 X154.128 Y102.907 E61.7141
G1 X154.711 Y105.758 E62.02838
G1 X154.817 Y106.455 E62.10452
G1 X155.112 Y109.37 E62.42095
G1 X155.148 Y110.075 E62.49719
G1 X155.148 Y112.983 E62.81125
G1 X155.112 Y113.688 E62.88749
G1 X154.817 Y116.603 E63.20392
G1 X154.711 Y117.299 E63.27995
G1 X154.128 Y120.152 E63.59444
G1 X153.954 Y120.83 E63.67004
G1 X153.085 Y123.624 E63.98605
G1 X152.844 Y124.282 E64.06173
G1 X152.604 Y124.847 E64.12803
G1 X152.285 Y125.5 E64.20652
G1 X151.98 Y126.051 E64.27453
G1 X151.603 Y126.657 E64.35161
G1 X151.247 Y127.169 E64.41896
G1 X150.826 Y127.716 E64.49351
G1 X150.42 Y128.192 E64.56108
G1 X149.902 Y128.737 E64.64228
G1 X149.448 Y129.166 E64.70974
G1 X148.941 Y129.601 E64.78189
G1 X148.453 Y129.981 E64.84869
G1 X147.862 Y130.394 E64.92656
G1 X147.326 Y130.729 E64.99482
G1 X146.701 Y131.077 E65.07208
G1 X146.147 Y131.349 E65.13873
G1 X145.496 Y131.628 E65.21523
G1 X144.911 Y131.845 E65.28261
G1 X144.241 Y132.056 E65.35848
G1 X143.631 Y132.214 E65.42653
G1 X143.245 Y132.589 E65.48465
G1 X142.655 Y133.048 E65.56538
G1 X142.019 Y133.443 E65.64624
G1 X141.345 Y133.767 E65.72701
G1 X140.64 Y134.017 E65.80779
G1 X139.912 Y134.191 E65.88863
G1 X139.022 Y134.305 E65.98554
G1 X131.358 Y134.305 E66.81325
G1 X130.611 Y134.265 E66.89404
G1 X129.873 Y134.146 E66.97477
G1 X129.151 Y133.948 E67.05563
G1 X128.455 Y133.675 E67.13637
G1 X127.792 Y133.328 E67.21719
G1 X127.169 Y132.913 E67.29804
G1 X126.752 Y132.565 E67.35669
G1 X103.574 Y132.565 E69.85992
G1 X103.096 Y132.565 E69.91154
G1 X93.595 Y132.565 E70.93765
G1 X92.983 Y133.046 E71.02172
G1 X92.347 Y133.441 E71.10258
G1 X91.673 Y133.765 E71.18334
G1 X90.969 Y134.016 E71.26406
G1 X90.241 Y134.19 E71.3449
G1 X89.352 Y134.305 E71.44171
G1 X81.683 Y134.305 E72.26996
G1 X80.936 Y134.265 E72.35075
G1 X80.198 Y134.146 E72.43149
G1 X79.476 Y133.948 E72.51234
G1 X78.78 Y133.675 E72.59309
G1 X78.117 Y133.328 E72.67391
G1 X77.494 Y132.913 E72.75475
G1 X77.047 Y132.54 E72.81763
G1 X76.765 Y132.525 E72.84813
G1 X76.027 Y132.406 E72.92886
G1 X75.305 Y132.208 E73.00971
G1 X74.609 Y131.935 E73.09046
G1 X73.946 Y131.588 E73.17128
G1 X73.323 Y131.173 E73.25212
G1 X72.749 Y130.694 E73.33286
G1 X72.228 Y130.157 E73.41367
G1 X71.769 Y129.567 E73.4944
G1 X71.374 Y128.931 E73.57526
G1 X71.05 Y128.257 E73.65602
G1 X70.8 Y127.552 E73.73681
G1 X70.626 Y126.824 E73.81765
G1 X70.512 Y125.934 E73.91455
G1 X70.511 Y97.495 E76.98597
G1 X70.551 Y96.748 E77.06676
G1 X70.67 Y96.01 E77.14749
G1 X70.868 Y95.288 E77.22835
G1 X71.141 Y94.592 E77.30909
G1 X71.488 Y93.929 E77.38991
G1 X71.902 Y93.306 E77.47069
G1 X72.381 Y92.732 E77.55143
G1 X72.919 Y92.212 E77.63224
G1 X73.509 Y91.752 E77.71304
G0 F9000 X73.895 Y91.974
G1 F1800 X74.524 Y91.61 E77.79153
G1 X75.188 Y91.317 E77.86991
G1 X75.881 Y91.099 E77.94837
G1 X76.594 Y90.959 E78.02685
G1 X77.138 Y90.921 E78.08574
G1 X77.481 Y90.604 E78.13618
G1 X78.066 Y90.174 E78.21459
G1 X78.695 Y89.81 E78.29308
G1 X79.36 Y89.517 E78.37156
G1 X80.053 Y89.299 E78.45002
G1 X80.765 Y89.159 E78.52839
G1 X81.682 Y89.095 E78.62767
G1 X88.977 Y89.095 E79.41553
G1 X89.702 Y89.135 E79.49395
G1 X90.419 Y89.254 E79.57244
G1 X91.118 Y89.452 E79.6509
G1 X91.791 Y89.725 E79.72934
G1 X92.43 Y90.07 E79.80777
G1 X93.027 Y90.484 E79.88623
G1 X93.5 Y90.895 E79.95391
G1 X102.356 Y90.895 E80.91035
G1 X102.845 Y90.895 E80.96317
G1 X126.841 Y90.895 E83.55473
G1 X127.153 Y90.607 E83.60059
G1 X127.738 Y90.176 E83.67907
G1 X128.366 Y89.811 E83.75751
G1 X129.031 Y89.518 E83.836
G1 X129.724 Y89.3 E83.91446
G1 X130.437 Y89.159 E83.99295
G1 X131.357 Y89.095 E84.09255
G1 X138.652 Y89.095 E84.88041
G1 X139.377 Y89.135 E84.95883
G1 X140.094 Y89.254 E85.03733
G1 X140.793 Y89.452 E85.11579
G1 X141.466 Y89.725 E85.19423
G1 X142.105 Y90.07 E85.27265
G1 X142.702 Y90.484 E85.35112
G1 X143.25 Y90.96 E85.42951
G1 X143.496 Y91.226 E85.46864
G1 X144.141 Y91.391 E85.54054
G1 X144.793 Y91.597 E85.61439
G1 X145.377 Y91.815 E85.68171
G1 X145.991 Y92.08 E85.75394
G1 X146.546 Y92.354 E85.82078
G1 X147.131 Y92.681 E85.89316
G1 X147.662 Y93.014 E85.96086
G1 X148.216 Y93.402 E86.0339
G1 X148.708 Y93.786 E86.10131
G1 X149.192 Y94.203 E86.1703
G1 X149.65 Y94.638 E86.23852
G1 X150.122 Y95.136 E86.31263
G1 X150.522 Y95.604 E86.37912
G1 X150.936 Y96.142 E86.45243
G1 X151.286 Y96.649 E86.51897
G1 X151.627 Y97.198 E86.58877
G1 X151.937 Y97.757 E86.6578
G1 X152.243 Y98.385 E86.73325
G1 X152.478 Y98.94 E86.79834
G1 X152.702 Y99.552 E86.86872
G1 X153.572 Y102.348 E87.18497
G1 X153.736 Y102.987 E87.25622
G1 X154.319 Y105.838 E87.5705
G1 X154.419 Y106.495 E87.64227
G1 X154.714 Y109.41 E87.9587
G1 X154.748 Y110.075 E88.03062
G1 X154.748 Y112.983 E88.34468
G1 X154.714 Y113.648 E88.41659
G1 X154.419 Y116.563 E88.73302
G1 X154.319 Y117.219 E88.80469
G1 X153.736 Y120.072 E89.11918
G1 X153.572 Y120.711 E89.19043
G1 X152.703 Y123.505 E89.50644
G1 X152.476 Y124.125 E89.57775
G1 X152.236 Y124.69 E89.64404
G1 X151.935 Y125.306 E89.71809
G1 X151.63 Y125.857 E89.7861
G1 X151.275 Y126.429 E89.85881
G1 X150.919 Y126.941 E89.92616
